X:1
T:Se bel rio
T:Se bel rio
T:Giovanni Ghizzolo
C:Giovanni Ghizzolo
%%score [ 1 2 ] { 3 | 4 }
L:1/8
Q:1/4=120
M:6/2
K:C
V:1 treble nm="Soprano" snm="S"
V:2 bass nm="Bass" snm="B"
V:3 treble nm="MusicXML Part"
V:4 bass 
V:1
"^Source: Madrigali et Arie---Libro secondo---Venetia---A.Raverij---1609.\n    Editor: André Vierendeels  (05/12/09)\n    Continuo: André Vierendeels" B8 ^c4 d8 f4 | %1
w: Se bel rio se|
w: Quan- do'a- vien ch'un|
w: Se gia mai tra|
w: Ben e ver quan-|
 e8 e4"^ARIA" d8 d4 | B8 ^G4 A8 A4 | G8 A4 B8 c4 | d8 d4 e8 e4 :: e8 d4 c8 B4 | A8 B4 ^G8 G4 | %7
w: bell' au- ret- ta|tra l'her- bet- ta|su'l mat- tin mor-|mo- ran- do'er- ra|Se di fio- ri'un|pra- ti- cel- lo|
w: Ze- fi- ret- to|per di- let- to|ba- gn'i pie nel-|on- de chia- re|Si che l'ac- qua'in|su l'a- re- na|
w: fior ver- mi- gli|se tra gi- gli|ves- te l'al- ba'un|a- reo ve- le|E su ro- te|di Zaf- fi- ro|
w: do'e gio- con- do|ri- de'il mon- do|ri- de'il ciel quan-|do'e gio- io- so|Ben e ver ma|non sann' po- i|
 A8 B4 ^G8 G4 | c8 d4 e8 A4 | B8 B4 A8 A4 | B8 c4 d8 G4 |[M:3/2] A8 A4 |1 G8 G4 :|2 G12 || G12 |] %15
w: si fa bel- lo|noi di- ceam ri-|de la ter- ra,|noi di- ceam ri-|de la|ter- ra.|ter-|ra.|
w: scher- zi'a pe- na|noi di- ceam che|ri- de'il ma- re,|noi di- ceam che|ri- de'il|ma- re.|ma-|re.|
w: mo- ve'in gi- ro|noi di- ceam che|vi- de'il cie- lo,|noi di- ceam che|vi- de'il|cie- lo.|cie-|lo|
w: co- me vo- i|far un ri- so|gra- ti- o- so,|far un ri- so|gra- ti-|o- so.|o-|so.|
V:2
 G,8 E,4 D,8 D,4 | A,8 A,4 D,8 D,4 | E,8 E,4 A,,8 A,,4 | E,8 F,4 G,8 E,4 | F,8 G,4 C,8 C,4 :: %5
w: Se bel rio se|bell' au- ret- ta|tra l'her- bet- ta|su'l mat- tin mor|mo- ran- do'er- ra|
w: Quan- do'a- vien ch'un|Ze- fi- ret- to|per di- let- to|ba- gn'i pie nel|on- de chia- re|
w: Se gia mai tra|fior ver- mi- gli|se tra gi- gli|ves- te l'al ba'un|a- reo ve- le|
w: Ben e ver quan-|do'e gio- con- do|ri- de'il on- do|ri- de'il ciel quan-|do'e gio- io- so|
 C8 B,4 A,8 G,4 | F,8 D,4 E,8 E,4 | F,8 D,4 E,8 E,4 | C,8 B,,4 C,8 C,4 | D,8 E,4 A,,8 A,,4 | %10
w: Se di fio- ri'un|pra- ti- cel- lo|si fa bel- lo|noi di- ceam ri-|de la ter- ra,|
w: Si che l'ac- qua'in|su l'ar- re- na|scher- zi'a pe- na|noi d- ceam che|ri- de'il ma- re,|
w: E su ro- te|di Zaf- fi- ro|mo- ve'in gi- ro|noi di- ceam che|vi- de'il cie- lo,|
w: Ben e ver ma|non sann' po- i|co- me vo- i|far un ri- so|gra- ti- o- so,|
 G,,8 A,,4 B,,8 B,,4 |[M:3/2] C,8 D,4 |1 G,,8 G,,4 :|2 G,,12 || G,,12 |] %15
w: noi di ceam ri-|de la|ter- ra.|ter-|ra.|
w: noi di- ceam che|ri- de'l|ma- re.|ma-|re.|
w: noi di- ceam che|vi- de'il|cie- lo.|cie-|lo.|
w: far un ri- so|gra- ti-|o- so.|o-|so.|
V:3
 [DB]8 [E^c]4 [^FAd]12 | [Ac]12 [FAd]12 | [^GB]12 [E^c]12 | [GB]8 [DA]4 [DG]8 [CG]4 | %4
 A8 [GB]4 [EGc]12 :: [EG]8 D4 E8 [GB]4 | [DA]8 F4 [^GB]12 | [DA]8 F4 [^GB]12 | %8
 [EGc]8 [DG]4 [EG]8 [EA]4 | F8 [EGB]4 [EA^c]12 | G8 F4 G8 G4 | %11
[M:3/2] E8 ^F4"^Note: original keys: Ut 1st, Fa 4rth""^m3 Soprano: \"si\" for \"la\" in original print." |1 %12
 [DGB]12 :|2 [DG-B]12 || [DGB]12 |] %15
V:4
 G,8 E,4 D,8 D,4 | A,8 A,4 D,8 D,4 | E,8 E,4 A,,8 A,,4 | E,8 F,4 G,8 E,4 | F,8 G,4 C,8 C,4 :: %5
 C8 B,4 A,8 G,4 | F,8 D,4 E,8 E,4 | F,8 D,4 E,8 E,4 | C,8 B,,4 C,8 C,4 | D,8 E,4 A,,8 A,,4 | %10
 G,,8 A,,4 B,,8 B,,4 |[M:3/2] C,8 D,4 |1 G,,8 G,,4 :|2 G,,12 || G,,12 |] %15

